X:40
T:Stan Treacy's Polka
% NFF Book 2007
S:collected from Stan Treacy, Crookwell, NSW
S:John Meredith Collection, NLA
N:This tune is a variant of Charles D'Albert's "Kitty Shottische, also known as "Girl With The Blue Dress On". 
N:Versions were collected in Australia from:
N:- Bill Cooper, by Chris Sullivan and Dave de Hugard, as "Bill Cooper's Polka"
N:- Fred Holland, by John Meredith as "Fred Holland's Polka"
N:- Bruce Smith, by Barry McDonald, as "Bruce Smith's polka"
N:- Joe Yates, by John Meredith, "Joe Yates 5th Reel"
O:Australia, NSW, Crookwell
R:Polka
M:2/4
L:1/8
K:D
|:"D"aA af|"G"gBB2|"A"cd/c/ Bc|1"D"BAA2:|2BA"D"d2||
|:"D"FA de/d/|"G"cB BA/B/|"A"cd/c/ Bc|1"D"BAA2:|2"D"BAd2||


